svg/message_check_outline.svg

<svg xmlns="http://www.w3.org/2000/svg" id="mdi-message-check-outline" viewBox="0 0 24 24"><path d="M20 2H4C2.9 2 2 2.9 2 4V22L6 18H20C21.1 18 22 17.1 22 16V4C22 2.9 21.1 2 20 2M20 16H5.2L4 17.2V4H20V16M10.47 14L7 10.5L8.4 9.09L10.47 11.17L15.6 6L17 7.41L10.47 14Z" /></svg>

<svg xmlns="http://www.w3.org/2000/svg" viewBox="0 0 24 24"><path d="M20 2H4c-1.1 0-2 .9-2 2v18l4-4h14c1.1 0 2-.9 2-2V4c0-1.1-.9-2-2-2m0 14H5.2L4 17.2V4h16zm-9.53-2L7 10.5l1.4-1.41 2.07 2.08L15.6 6 17 7.41z"/></svg>
